build/img/sprite/vk-icon.svg

<svg width="28" height="28" viewBox="0 0 28 28" fill="none" xmlns="http://www.w3.org/2000/svg">
<g clip-path="url(#clip0_12_67)">
<path fill-rule="evenodd" clip-rule="evenodd" d="M9.67111 0H18.2263C26.0376 0 27.8974 1.85983 27.8974 9.67111V18.2263C27.8974 26.0376 26.0376 27.8974 18.2263 27.8974H9.67111C1.85983 27.8974 0 26.0376 0 18.2263V9.67111C0 1.85983 1.85983 0 9.67111 0ZM22.8442 9.61099C22.9734 9.17997 22.8442 8.86325 22.2289 8.86325H20.1947C19.6776 8.86325 19.4391 9.13684 19.3098 9.43854C19.3098 9.43854 18.2753 11.96 16.8098 13.5978C16.3358 14.0719 16.1202 14.2228 15.8617 14.2228C15.7323 14.2228 15.5451 14.0719 15.5451 13.6409V9.61099C15.5451 9.09376 15.3951 8.86325 14.964 8.86325H11.7674C11.4442 8.86325 11.2498 9.10331 11.2498 9.33082C11.2498 9.82114 11.9825 9.93421 12.058 11.3135V14.3091C12.058 14.9658 11.9394 15.0848 11.6808 15.0848C10.9912 15.0848 9.31375 12.5522 8.31885 9.65407C8.12388 9.09079 7.92832 8.86325 7.40844 8.86325H5.37426C4.79306 8.86325 4.67682 9.13684 4.67682 9.43854C4.67682 9.97733 5.36646 12.6496 7.88787 16.184C9.56881 18.5976 11.9371 19.906 14.0922 19.906C15.3852 19.906 15.5451 19.6154 15.5451 19.1149V17.2906C15.5451 16.7094 15.6677 16.5934 16.0772 16.5934C16.3788 16.5934 16.8961 16.7443 18.103 17.9079C19.4822 19.2872 19.7095 19.906 20.4853 19.906H22.5195C23.1007 19.906 23.3913 19.6154 23.2237 19.0419C23.0403 18.4703 22.3818 17.6411 21.508 16.658C21.0339 16.0978 20.3227 15.4944 20.1071 15.1926C19.8054 14.8047 19.8917 14.6323 20.1071 14.2874C20.1071 14.2874 22.5855 10.7963 22.8442 9.61099Z" fill="white"/>
</g>
<defs>
<clipPath id="clip0_12_67">
<rect width="27.8974" height="27.8974" fill="white"/>
</clipPath>
</defs>
</svg>

<svg width="28" height="28" fill="none" xmlns="http://www.w3.org/2000/svg"><g clip-path="url(#clip0_12_67)"><path fill-rule="evenodd" clip-rule="evenodd" d="M9.671 0h8.555c7.812 0 9.671 1.86 9.671 9.671v8.555c0 7.812-1.86 9.671-9.67 9.671H9.67c-7.81 0-9.67-1.86-9.67-9.67V9.67C0 1.86 1.86 0 9.671 0zm13.173 9.611c.13-.431 0-.748-.615-.748h-2.034c-.517 0-.756.274-.885.576 0 0-1.035 2.521-2.5 4.159-.474.474-.69.625-.948.625-.13 0-.317-.151-.317-.582V9.61c0-.517-.15-.748-.581-.748h-3.197c-.323 0-.517.24-.517.468 0 .49.732.603.808 1.982v2.996c0 .657-.119.776-.377.776-.69 0-2.367-2.533-3.362-5.43-.195-.564-.39-.792-.91-.792H5.373c-.58 0-.697.274-.697.576 0 .538.69 3.21 3.21 6.745 1.682 2.414 4.05 3.722 6.205 3.722 1.293 0 1.453-.29 1.453-.791V17.29c0-.582.123-.698.532-.698.302 0 .82.151 2.026 1.315 1.38 1.38 1.606 1.998 2.382 1.998h2.035c.58 0 .871-.29.704-.864-.184-.572-.842-1.4-1.716-2.384-.474-.56-1.185-1.164-1.4-1.465-.303-.388-.216-.56 0-.906 0 0 2.477-3.49 2.736-4.676z" fill="#fff"/></g><defs><clipPath id="clip0_12_67"><path fill="#fff" d="M0 0h27.897v27.897H0z"/></clipPath></defs></svg>
